modules/feathericon/icons/list-task.svg

<?xml version="1.0" encoding="UTF-8"?>
<svg width="14px" height="14px" viewBox="0 0 14 14" version="1.1" xmlns="http://www.w3.org/2000/svg" xmlns:xlink="http://www.w3.org/1999/xlink">
    <!-- Generator: sketchtool 48.1 (47250) - http://www.bohemiancoding.com/sketch -->
    <title>list-task</title>
    <desc>Created with sketchtool.</desc>
    <defs></defs>
    <g id="text-edit" stroke="none" stroke-width="1" fill="none" fill-rule="evenodd">
        <g id="list-task" fill="#000000">
            <path d="M6,12 L14,12 L14,14 L6,14 L6,12 Z M6,7 L14,7 L14,9 L6,9 L6,7 Z M10,2 L14,2 L14,4 L10,4 L10,2 Z M0.0024516648,3.99552895 L1,3.00327078 L2.9984238,5 L7.99999977,0 L9,1 L3,7 L0.0024516648,3.99552895 Z" id="Shape"></path>
        </g>
    </g>
</svg>

<svg width="14" height="14" viewBox="0 0 14 14" xmlns="http://www.w3.org/2000/svg"><path d="M6 12h8v2H6v-2zm0-5h8v2H6V7zm4-5h4v2h-4V2zM.002 3.996L1 3.003 2.998 5 8 0l1 1-6 6L.002 3.996z" fill="#000" fill-rule="evenodd"/></svg>
